public/images/flags/NZ.svg

<svg width="21" height="15" viewBox="0 0 21 15" fill="none" xmlns="http://www.w3.org/2000/svg">
<path d="M2 0H19C19.5304 0 20.0391 0.210712 20.4142 0.585785C20.7893 0.960858 21 1.46957 21 2V13C21 13.5304 20.7893 14.0391 20.4142 14.4142C20.0391 14.7893 19.5304 15 19 15H2C1.46957 15 0.96086 14.7893 0.585787 14.4142C0.210714 14.0391 0 13.5304 0 13V2C0 1.46957 0.210714 0.960858 0.585787 0.585785C0.96086 0.210712 1.46957 0 2 0Z" fill="#43458B"/>
<path d="M0 5.664L3.498 3.26401L3.499 3.263H3.5L3.501 3.26401L8.926 6.98599H7.159L3.5 4.476L0 6.877V5.664ZM9 0.0950012V1.308L5.501 3.70799L5.5 3.709L5.499 3.70799L0.741 0.444C1.05952 0.183233 1.45131 0.0280582 1.862 0L5.5 2.496L9 0.0950012Z" fill="#F6F9FC"/>
<path d="M8.909 7L5.25 4.49001L1.591 7H0V6.879L5.249 3.278V3.27699H5.251V3.278L9 5.85001V7H8.909ZM3.751 3.722V3.72301H3.749V3.722L0.148 1.252C0.27678 0.938134 0.483664 0.662409 0.749 0.451004L3.75 2.50999L7.409 0H9V0.121002L3.751 3.722Z" fill="#E25950"/>
<path d="M9 4.625H5.625V7H3.375V4.625H0V2.375H3.375V0H5.625V2.375H9V4.625Z" fill="#F6F9FC"/>
<path d="M9 3.998H5V7H4V3.998H0V3.002H4V0H5V3.002H9V3.998Z" fill="#E25950"/>
<path d="M16.22 6.44C15.9774 6.44676 15.7382 6.381 15.5332 6.25112C15.3281 6.12125 15.1665 5.93315 15.0689 5.7109C14.9713 5.48866 14.9423 5.24237 14.9854 5.00352C15.0286 4.76467 15.142 4.54412 15.3112 4.37008C15.4804 4.19604 15.6977 4.07643 15.9352 4.02653C16.1727 3.97664 16.4198 3.99872 16.6447 4.08998C16.8696 4.18123 17.0622 4.3375 17.1978 4.5388C17.3334 4.7401 17.4059 4.97728 17.406 5.22C17.4061 5.53759 17.2824 5.84271 17.0611 6.07052C16.8399 6.29834 16.5385 6.43089 16.221 6.44H16.22ZM14.22 4.44C13.9774 4.44676 13.7382 4.381 13.5332 4.25113C13.3281 4.12125 13.1665 3.93315 13.0689 3.7109C12.9713 3.48866 12.9423 3.24237 12.9854 3.00352C13.0286 2.76467 13.142 2.54412 13.3112 2.37008C13.4804 2.19604 13.6977 2.07643 13.9352 2.02653C14.1727 1.97664 14.4198 1.99872 14.6447 2.08998C14.8696 2.18123 15.0622 2.3375 15.1978 2.5388C15.3334 2.7401 15.4059 2.97728 15.406 3.22C15.4061 3.53776 15.2823 3.84302 15.0608 4.07086C14.8393 4.2987 14.5376 4.43114 14.22 4.44ZM13.44 6.22099C13.4468 6.46362 13.381 6.70275 13.2511 6.9078C13.1212 7.11285 12.9332 7.27451 12.7109 7.37208C12.4887 7.46966 12.2424 7.49871 12.0035 7.45555C11.7647 7.41238 11.5441 7.29896 11.3701 7.12977C11.196 6.96058 11.0764 6.74333 11.0265 6.50579C10.9766 6.26826 10.9987 6.02123 11.09 5.79632C11.1812 5.57141 11.3375 5.37883 11.5388 5.24321C11.7401 5.10759 11.9773 5.03509 12.22 5.035C12.5378 5.03488 12.843 5.15874 13.0709 5.38023C13.2987 5.60172 13.4311 5.90335 13.44 6.22099ZM14.22 10.002C14.4627 9.99503 14.7019 10.0606 14.9071 10.1904C15.1122 10.3201 15.274 10.5081 15.3718 10.7304C15.4695 10.9526 15.4987 11.1989 15.4557 11.4378C15.4126 11.6767 15.2993 11.8974 15.1301 12.0715C14.961 12.2457 14.7437 12.3654 14.5062 12.4154C14.2686 12.4653 14.0215 12.4433 13.7966 12.3521C13.5716 12.2609 13.379 12.1046 13.2433 11.9033C13.1076 11.702 13.0351 11.4648 13.035 11.222C13.0349 10.9044 13.1586 10.5993 13.3799 10.3715C13.6011 10.1437 13.9025 10.0111 14.22 10.002Z" fill="#F6F9FC"/>
<path d="M16.188 5.87399C16.0521 5.87419 15.9192 5.8341 15.8061 5.75877C15.6931 5.68345 15.6049 5.57628 15.5527 5.45082C15.5005 5.32536 15.4867 5.18726 15.513 5.05395C15.5393 4.92065 15.6046 4.79814 15.7005 4.70192C15.7964 4.6057 15.9188 4.5401 16.052 4.51339C16.1852 4.48669 16.3234 4.50009 16.449 4.55191C16.5746 4.60372 16.682 4.69162 16.7577 4.80449C16.8333 4.91735 16.8738 5.05013 16.874 5.186C16.8741 5.27622 16.8565 5.36557 16.8221 5.44897C16.7877 5.53237 16.7372 5.60818 16.6735 5.67207C16.6098 5.73596 16.5341 5.78667 16.4508 5.82132C16.3675 5.85596 16.2782 5.87386 16.188 5.87399ZM14.188 11.875C14.0519 11.8752 13.9188 11.835 13.8055 11.7595C13.6922 11.6841 13.6039 11.5767 13.5517 11.451C13.4994 11.3253 13.4857 11.1869 13.5121 11.0534C13.5385 10.9199 13.604 10.7972 13.7001 10.7009C13.7963 10.6045 13.9189 10.5389 14.0524 10.5123C14.1859 10.4857 14.3243 10.4992 14.45 10.5513C14.5758 10.6033 14.6833 10.6915 14.759 10.8047C14.8346 10.9178 14.875 11.0509 14.875 11.187C14.875 11.3695 14.8025 11.5445 14.6735 11.6735C14.5445 11.8025 14.3695 11.875 14.187 11.875H14.188ZM14.188 3.87399C14.0521 3.87439 13.9191 3.83446 13.8059 3.75926C13.6927 3.68406 13.6043 3.57696 13.552 3.45152C13.4996 3.32608 13.4857 3.18793 13.5119 3.05456C13.5381 2.92119 13.6033 2.7986 13.6991 2.70228C13.795 2.60596 13.9174 2.54025 14.0506 2.51347C14.1839 2.48669 14.3221 2.50003 14.4477 2.55182C14.5734 2.6036 14.6809 2.69149 14.7566 2.80438C14.8323 2.91727 14.8728 3.05008 14.873 3.186C14.8733 3.36803 14.8013 3.54272 14.6728 3.67172C14.5444 3.80072 14.37 3.87346 14.188 3.87399ZM12.188 6.87399C12.0374 6.86839 11.8927 6.81348 11.7764 6.71769C11.66 6.62191 11.5783 6.49054 11.5438 6.34381C11.5093 6.19707 11.524 6.04309 11.5856 5.9055C11.6471 5.76791 11.7522 5.65434 11.8845 5.58226C12.0169 5.51017 12.1693 5.48354 12.3183 5.50648C12.4672 5.52942 12.6046 5.60064 12.7091 5.70921C12.8137 5.81778 12.8797 5.95769 12.897 6.10742C12.9143 6.25715 12.882 6.40842 12.805 6.53799C12.7418 6.64427 12.6512 6.73157 12.5426 6.79069C12.434 6.84982 12.3115 6.87859 12.188 6.87399Z" fill="#E25950"/>
</svg>

<svg width="21" height="15" fill="none" xmlns="http://www.w3.org/2000/svg"><path d="M2 0h17a2 2 0 0 1 2 2v11a2 2 0 0 1-2 2H2a2 2 0 0 1-2-2V2a2 2 0 0 1 2-2z" fill="#43458B"/><path d="M0 5.664l3.498-2.4.001-.001H3.5l.001.001 5.425 3.722H7.159L3.5 4.476 0 6.877V5.664zM9 .095v1.213l-3.499 2.4-.001.001-.001-.001L.741.444C1.06.184 1.451.028 1.862 0L5.5 2.496 9 .095z" fill="#F6F9FC"/><path d="M8.909 7L5.25 4.49 1.591 7H0v-.121l5.249-3.601v-.001h.002v.001L9 5.85V7h-.091zM3.751 3.722v.001h-.002v-.001L.148 1.252A1.99 1.99 0 0 1 .749.451L3.75 2.51 7.409 0H9v.121L3.751 3.722z" fill="#E25950"/><path d="M9 4.625H5.625V7h-2.25V4.625H0v-2.25h3.375V0h2.25v2.375H9v2.25z" fill="#F6F9FC"/><path d="M9 3.998H5V7H4V3.998H0v-.996h4V0h1v3.002h4v.996z" fill="#E25950"/><path d="M16.22 6.44a1.22 1.22 0 1 1-.07-2.439 1.22 1.22 0 0 1 .071 2.439h-.001zm-2-2A1.22 1.22 0 1 1 14.152 2a1.22 1.22 0 0 1 .068 2.44zm-.78 1.781a1.22 1.22 0 1 1-2.438.068 1.22 1.22 0 0 1 2.438-.068zm.78 3.781a1.22 1.22 0 1 1 .07 2.438 1.22 1.22 0 0 1-.07-2.438z" fill="#F6F9FC"/><path d="M16.188 5.874a.687.687 0 1 1-.002-1.374.687.687 0 0 1 .002 1.374zm-2 6.001a.688.688 0 1 1 .486-.201.688.688 0 0 1-.487.201h.001zm0-8.001a.687.687 0 1 1-.004-1.374.687.687 0 0 1 .004 1.374zm-2 3a.688.688 0 1 1 .051-1.375.688.688 0 0 1-.051 1.375z" fill="#E25950"/></svg>
